src/assets/outline/Crop.svg

<?xml version="1.0" encoding="UTF-8"?>
<svg width="24" height="24" viewBox="0 0 24 24" xmlns="http://www.w3.org/2000/svg">
 <path d="m19 19.75h-9.1c-4.33 0-5.65-1.32-5.65-5.65v-9.1c0-0.41 0.34-0.75 0.75-0.75h9.1c4.33 0 5.65 1.32 5.65 5.65v9.1c0 0.41-0.34 0.75-0.75 0.75zm-13.25-14v8.35c0 3.49 0.66 4.15 4.15 4.15h8.35v-8.35c0-3.49-0.66-4.15-4.15-4.15h-8.35z"/>
 <path d="m5 5.75c-0.41 0-0.75-0.34-0.75-0.75v-3c0-0.41 0.34-0.75 0.75-0.75s0.75 0.34 0.75 0.75v3c0 0.41-0.34 0.75-0.75 0.75z"/>
 <path d="m5 5.75h-3c-0.41 0-0.75-0.34-0.75-0.75s0.34-0.75 0.75-0.75h3c0.41 0 0.75 0.34 0.75 0.75s-0.34 0.75-0.75 0.75z"/>
 <path d="m19 22.75c-0.41 0-0.75-0.34-0.75-0.75v-3c0-0.41 0.34-0.75 0.75-0.75s0.75 0.34 0.75 0.75v3c0 0.41-0.34 0.75-0.75 0.75z"/>
 <path d="m22 19.75h-3c-0.41 0-0.75-0.34-0.75-0.75s0.34-0.75 0.75-0.75h3c0.41 0 0.75 0.34 0.75 0.75s-0.34 0.75-0.75 0.75z"/>
</svg>

<svg width="24" height="24" viewBox="0 0 24 24"  xmlns="http://www.w3.org/2000/svg">
<path d="M19 19.75H9.9C5.57 19.75 4.25 18.43 4.25 14.1V5C4.25 4.59 4.59 4.25 5 4.25H14.1C18.43 4.25 19.75 5.57 19.75 9.9V19C19.75 19.41 19.41 19.75 19 19.75ZM5.75 5.75V14.1C5.75 17.59 6.41 18.25 9.9 18.25H18.25V9.9C18.25 6.41 17.59 5.75 14.1 5.75H5.75Z" />
<path d="M5 5.75C4.59 5.75 4.25 5.41 4.25 5V2C4.25 1.59 4.59 1.25 5 1.25C5.41 1.25 5.75 1.59 5.75 2V5C5.75 5.41 5.41 5.75 5 5.75Z" />
<path d="M5 5.75H2C1.59 5.75 1.25 5.41 1.25 5C1.25 4.59 1.59 4.25 2 4.25H5C5.41 4.25 5.75 4.59 5.75 5C5.75 5.41 5.41 5.75 5 5.75Z" />
<path d="M19 22.75C18.59 22.75 18.25 22.41 18.25 22V19C18.25 18.59 18.59 18.25 19 18.25C19.41 18.25 19.75 18.59 19.75 19V22C19.75 22.41 19.41 22.75 19 22.75Z" />
<path d="M22 19.75H19C18.59 19.75 18.25 19.41 18.25 19C18.25 18.59 18.59 18.25 19 18.25H22C22.41 18.25 22.75 18.59 22.75 19C22.75 19.41 22.41 19.75 22 19.75Z" />
</svg>
